X: 223
T: Miss Hunter Blair's Strathspey
C: William Shepherd (17??-1812)
R: strathspey
B: William Shepherd "2nd Collection" 1800 p.22 #3
F: http://imslp.org/wiki/File:PMLP73094-Shepherd_Collections_HMT.pdf
Z: 2012 John Chambers <jc:trillian.mit.edu>
M: C
L: 1/8
K: Bb
d !segno!|\
B>FD>F B,>FD>F | B>F {Bc}d>B G<c-Tc>d |\
B>FD>F B,>FD>F | A>BTc>B A<cTc>d |
B>FD>F B,>FD>F | B>F {Bc}d>B G<c-Tc>d |\
B>FD>F B,>FD>F | A>BTc>B Accd ||
B>fd>f g>Be>g | B>fd<B A<cc<d |\
B>fd>f e>gd>f | e>c {e}d.c/.B/ A<cTc>d |
B>fd>f g>Be>g | B>f (e/d/).c/.B/ A<cTc>e |\
d<fc<d B<dG<B | F>B (e/d/).c/.B/ A<c-Tc>d !segno!|]
